Newaita-dark/apps/64/briss-icon.svg

<svg height="64" viewBox="0 0 64 64" width="64" xmlns="http://www.w3.org/2000/svg" xmlns:xlink="http://www.w3.org/1999/xlink"><linearGradient id="a" gradientTransform="matrix(.148824 0 0 .125012 -5.260672 26.87757)" gradientUnits="userSpaceOnUse" x1="254" x2="254" y1="233.5" y2="254.666672"><stop offset="0" stop-opacity=".27451"/><stop offset="1" stop-opacity="0"/></linearGradient><linearGradient id="b"><stop offset="0" stop-opacity=".313726"/><stop offset=".222222" stop-opacity=".27451"/><stop offset="1" stop-opacity="0"/></linearGradient><radialGradient id="c" cx="450.908936" cy="189.579361" gradientTransform="matrix(.00000035 -.156265 -.281277 -.0000002 100.953697 127.190665)" gradientUnits="userSpaceOnUse" r="21.166656" xlink:href="#b"/><radialGradient id="d" cx="450.908936" cy="189.579361" gradientTransform="matrix(-.00000035 .156265 .281277 .0000002 -37.447629 -15.054958)" gradientUnits="userSpaceOnUse" r="21.166656" xlink:href="#b"/><radialGradient id="e" cx="450.908936" cy="189.579361" gradientTransform="matrix(-.00000035 -.156265 .281277 -.0000002 -37.447629 127.190665)" gradientUnits="userSpaceOnUse" r="21.166656" xlink:href="#b"/><radialGradient id="f" cx="450.908936" cy="189.579361" gradientTransform="matrix(.00000035 .156265 -.281277 .0000002 100.953693 -15.054959)" gradientUnits="userSpaceOnUse" r="21.166656" xlink:href="#b"/><linearGradient id="g" gradientUnits="userSpaceOnUse" x1="31.753048" x2="31.753048" y1="56.067868" y2="5.79220799994"><stop offset="0" stop-color="#e0e0e0"/><stop offset="1" stop-color="#eee"/></linearGradient><linearGradient id="h"><stop offset="0" stop-color="#5c6bc0"/><stop offset="1" stop-color="#7986cb"/></linearGradient><linearGradient id="i" gradientUnits="userSpaceOnUse" x1="51.71899192163" x2="51.71899192163" xlink:href="#h" y1="-32.46584179529" y2="17.80981632959"/><filter id="j" height="100%" width="100%" x="0%" y="0%"><feColorMatrix in="SourceGraphic" type="matrix" values="0 0 0 0 1 0 0 0 0 1 0 0 0 0 1 0 0 0 1 0"/></filter><mask id="k"><g filter="url(#j)"><path d="m0 0h64v64h-64z" fill-opacity=".99"/></g></mask><linearGradient id="l" gradientUnits="userSpaceOnUse" x1="31.753054" x2="31.753054" xlink:href="#h" y1="59.37554190428" y2="-.161439088"/><clipPath id="m"><path d="m0 0h64v64h-64z"/></clipPath><mask id="n"><g filter="url(#j)"><path d="m0 0h64v64h-64z" fill-opacity=".99"/></g></mask><clipPath id="o"><path d="m0 0h64v64h-64z"/></clipPath><mask id="p"><g filter="url(#j)"><path d="m0 0h64v64h-64z" fill-opacity=".99"/></g></mask><clipPath id="q"><path d="m0 0h64v64h-64z"/></clipPath><mask id="r"><g filter="url(#j)"><path d="m0 0h64v64h-64z" fill-opacity=".99"/></g></mask><clipPath id="s"><path d="m0 0h64v64h-64z"/></clipPath><path d="m15.214844 56.066406h33.078125v2.648438h-33.078125zm0 0" fill="url(#a)"/><path d="m48.292969 56.066406h5.289062v-2.644531h-5.289062zm0 0" fill="url(#c)"/><path d="m15.214844 56.066406h-5.292969v2.648438h5.292969zm0 0" fill="url(#d)"/><path d="m15.214844 56.066406h-5.292969v-2.644531h5.292969zm0 0" fill="url(#e)"/><path d="m48.292969 56.066406h5.289062v2.648438h-5.289062zm0 0" fill="url(#f)"/><path d="m39.8125 5.792969h-26.582031c-1.464844 0-2.644531 1.179687-2.644531 2.644531v44.984375c0 1.464844 1.179687 2.644531 2.644531 2.644531h37.046875c1.464844 0 2.644531-1.179687 2.644531-2.644531v-35.613281zm0 0" fill="url(#g)"/><path d="m39.8125 5.792969 13.109375 12.015625v-9.371094c0-1.464844-1.179687-2.644531-2.644531-2.644531zm0 0" fill="url(#i)"/><path d="m10.585938 52.761719v.660156c0 1.464844 1.179687 2.644531 2.644531 2.644531h37.046875c1.464844 0 2.644531-1.179687 2.644531-2.644531v-.660156c0 1.464843-1.179687 2.644531-2.644531 2.644531h-37.046875c-1.464844 0-2.644531-1.179688-2.644531-2.644531zm0 0" fill-opacity=".235294"/><path d="m13.230469 5.792969c-1.464844 0-2.644531 1.179687-2.644531 2.644531v.664062c0-1.46875 1.179687-2.648437 2.644531-2.648437h26.582031l13.109375 12.019531v-.664062l-13.109375-12.015625zm0 0" fill="#fff" fill-opacity=".588235"/><path d="m39.8125 5.792969.71875.660156h9.746094c1.464844 0 2.644531 1.179687 2.644531 2.648437v-.664062c0-1.464844-1.179687-2.644531-2.644531-2.644531zm0 0" fill="#fff" fill-opacity=".392157"/><path d="m39.8125 5.792969 13.109375 12.015625v-1.101563l-11.90625-10.914062zm0 0" fill-opacity=".235294"/><path d="m1203.664647 175.140764h-803.663454c-44.287112 0-79.952999 35.665888-79.952999 79.952999v1360.027676c0 44.287112 35.665887 79.952999 79.952999 79.952999h1120.05058c44.287111 0 79.952999-35.665887 79.952999-79.952999v-1076.70826zm0 0" fill="none" stroke="#212121" stroke-linecap="round" stroke-linejoin="round" stroke-width="11.338583" transform="scale(.0330761)"/><path d="m318.469588-168.660675 104.864986 96.115821v-74.961591c0-11.717631-9.436599-21.15423-21.15423-21.15423zm0 0" fill="none" stroke="#212121" stroke-linecap="round" stroke-linejoin="round" stroke-width="3" transform="matrix(.125012 0 0 .125012 0 26.877566)"/><g clip-path="url(#m)" mask="url(#k)"><path d="m18.523438 13.070312c-.734376 0-1.324219.589844-1.324219 1.320313v2.648437h-2.644531c-.734376 0-1.324219.589844-1.324219 1.320313 0 .734375.589843 1.324219 1.324219 1.324219h2.644531v25.136718c0 .046876.003906.09375.007812.136719 0 .023438.003907.046875.007813.066407.097656.636718.644531 1.121093 1.308594 1.121093h25.136718v2.648438c0 .730469.589844 1.320312 1.324219 1.320312.730469 0 1.320313-.589843 1.320313-1.320312v-2.648438h2.648437c.734375 0 1.324219-.589843 1.324219-1.324219 0-.730468-.589844-1.320312-1.324219-1.320312h-2.648437v-25.140625c0-.042969 0-.089844-.003907-.132813-.003906-.023437-.007812-.046874-.007812-.066406-.097657-.636718-.644531-1.121094-1.308594-1.121094h-25.140625v-2.648437c0-.730469-.589844-1.320313-1.320312-1.320313zm1.320312 6.613282h23.816406v23.816406h-23.816406zm0 0" fill="url(#l)"/></g><g clip-path="url(#o)" mask="url(#n)"><path d="m18.523438 13.070312c-.734376 0-1.324219.589844-1.324219 1.320313v.664063c0-.734376.589843-1.324219 1.324219-1.324219.730468 0 1.320312.589843 1.320312 1.324219v-.664063c0-.730469-.589844-1.320313-1.320312-1.320313zm-3.96875 3.96875c-.734376 0-1.324219.589844-1.324219 1.320313 0 .117187.015625.226563.042969.332031.144531-.570312.660156-.992187 1.28125-.992187h2.644531v-.660157zm5.289062 0v.660157h25.140625c.664063 0 1.210937.484375 1.308594 1.121093 0 .023438.003906.042969.007812.066407.003907.042969.003907.089843.003907.136719v-.664063c0-.042969 0-.089844-.003907-.132813-.003906-.023437-.007812-.046874-.007812-.066406-.097657-.636718-.644531-1.121094-1.308594-1.121094zm0 26.460938v.660156h23.816406v-.660156zm26.460938 0v.660156h2.648437c.617187 0 1.132813.421875 1.28125.992188.027344-.105469.042969-.214844.042969-.332032 0-.730468-.589844-1.320312-1.324219-1.320312zm0 0" fill="#fff" fill-opacity=".392157"/></g><g clip-path="url(#q)" mask="url(#p)"><path d="m13.40625 19.023438c-.113281.195312-.175781.417968-.175781.660156 0 .734375.589843 1.324218 1.324219 1.324218h2.644531v-1.324218h-2.644531c-.492188 0-.917969-.265625-1.148438-.660156zm6.4375.660156v1.324218h23.816406v-1.324218zm-2.644531 25.136718v1.324219c0 .046875.003906.089844.007812.136719 0 .023438.003907.042969.007813.066406.097656.636719.644531 1.121094 1.308594 1.121094h25.136718v-1.324219h-25.136718c-.664063 0-1.210938-.484375-1.308594-1.121093-.003906-.019532-.007813-.042969-.007813-.066407-.003906-.042969-.007812-.089843-.007812-.136719zm32.898437.664063c-.226562.394531-.652344.660156-1.144531.660156h-2.648437v1.324219h2.648437c.734375 0 1.324219-.589844 1.324219-1.324219 0-.242187-.066406-.464843-.179688-.660156zm-6.4375 3.308594v1.320312c0 .734375.589844 1.324219 1.324219 1.324219.730469 0 1.320313-.589844 1.320313-1.324219v-1.320312c0 .730469-.589844 1.320312-1.320313 1.320312-.734375 0-1.324219-.589843-1.324219-1.320312zm0 0" fill-opacity=".235294"/></g><g clip-path="url(#s)" mask="url(#r)"><path d="m148.17335-110.447484c-5.874439 0-10.592738 4.718299-10.592738 10.561491v21.185477h-21.15423c-5.874439 0-10.592739 4.718299-10.592739 10.561491 0 5.874439 4.7183 10.592739 10.592739 10.592739h21.15423v201.074548c0 .374964.031247.749929.062494 1.093646 0 .187482.031247.374964.062494.531199.781175 5.093264 5.155757 8.967894 10.46775 8.967894h201.074548v21.185477c0 5.843192 4.7183 10.561491 10.592739 10.561491 5.843192 0 10.561491-4.718299 10.561491-10.561491v-21.185477h21.185477c5.874439 0 10.592739-4.7183 10.592739-10.592739 0-5.843192-4.7183-10.561491-10.592739-10.561491h-21.185477v-201.105796c0-.343717 0-.718681-.031247-1.062398-.031247-.187482-.062494-.374964-.062494-.531199-.781175-5.093264-5.155757-8.967894-10.46775-8.967894h-201.105795v-21.185477c0-5.843192-4.7183-10.561491-10.561492-10.561491zm10.561492 52.901198h190.513056v190.513057h-190.513056zm0 0" fill="none" stroke="#212121" stroke-linecap="round" stroke-linejoin="round" stroke-width="3" transform="matrix(.125012 0 0 .125012 0 26.877566)"/></g></svg>

<?xml version="1.0" encoding="UTF-8"?>
<svg xmlns="http://www.w3.org/2000/svg" xmlns:xlink="http://www.w3.org/1999/xlink" width="64px" height="64px" viewBox="0 0 64 64" version="1.1">
<defs>
<linearGradient id="linear0" gradientUnits="userSpaceOnUse" x1="254" y1="233.5" x2="254" y2="254.666672" gradientTransform="matrix(0.148824,0,0,0.125012,-5.260672,26.87757)">
<stop offset="0" style="stop-color:rgb(0%,0%,0%);stop-opacity:0.27451;"/>
<stop offset="1" style="stop-color:rgb(0%,0%,0%);stop-opacity:0;"/>
</linearGradient>
<radialGradient id="radial0" gradientUnits="userSpaceOnUse" cx="450.908936" cy="189.579361" fx="450.908936" fy="189.579361" r="21.166656" gradientTransform="matrix(0.000000348341,-0.156265,-0.281277,-0.000000203077,100.953697,127.190665)">
<stop offset="0" style="stop-color:rgb(0%,0%,0%);stop-opacity:0.313726;"/>
<stop offset="0.222222" style="stop-color:rgb(0%,0%,0%);stop-opacity:0.27451;"/>
<stop offset="1" style="stop-color:rgb(0%,0%,0%);stop-opacity:0;"/>
</radialGradient>
<radialGradient id="radial1" gradientUnits="userSpaceOnUse" cx="450.908936" cy="189.579361" fx="450.908936" fy="189.579361" r="21.166656" gradientTransform="matrix(-0.000000348341,0.156265,0.281277,0.000000203077,-37.447629,-15.054958)">
<stop offset="0" style="stop-color:rgb(0%,0%,0%);stop-opacity:0.313726;"/>
<stop offset="0.222222" style="stop-color:rgb(0%,0%,0%);stop-opacity:0.27451;"/>
<stop offset="1" style="stop-color:rgb(0%,0%,0%);stop-opacity:0;"/>
</radialGradient>
<radialGradient id="radial2" gradientUnits="userSpaceOnUse" cx="450.908936" cy="189.579361" fx="450.908936" fy="189.579361" r="21.166656" gradientTransform="matrix(-0.000000348341,-0.156265,0.281277,-0.000000203077,-37.447629,127.190665)">
<stop offset="0" style="stop-color:rgb(0%,0%,0%);stop-opacity:0.313726;"/>
<stop offset="0.222222" style="stop-color:rgb(0%,0%,0%);stop-opacity:0.27451;"/>
<stop offset="1" style="stop-color:rgb(0%,0%,0%);stop-opacity:0;"/>
</radialGradient>
<radialGradient id="radial3" gradientUnits="userSpaceOnUse" cx="450.908936" cy="189.579361" fx="450.908936" fy="189.579361" r="21.166656" gradientTransform="matrix(0.000000348341,0.156265,-0.281277,0.000000203077,100.953693,-15.054959)">
<stop offset="0" style="stop-color:rgb(0%,0%,0%);stop-opacity:0.313726;"/>
<stop offset="0.222222" style="stop-color:rgb(0%,0%,0%);stop-opacity:0.27451;"/>
<stop offset="1" style="stop-color:rgb(0%,0%,0%);stop-opacity:0;"/>
</radialGradient>
<linearGradient id="linear1" gradientUnits="userSpaceOnUse" x1="254" y1="233.5" x2="254" y2="-168.666672" gradientTransform="matrix(0.125012,0,0,0.125012,0,26.877566)">
<stop offset="0" style="stop-color:rgb(87.843138%,87.843138%,87.843138%);stop-opacity:1;"/>
<stop offset="1" style="stop-color:rgb(93.333334%,93.333334%,93.333334%);stop-opacity:1;"/>
</linearGradient>
<linearGradient id="linear2" gradientUnits="userSpaceOnUse" x1="413.712219" y1="-474.701691" x2="413.712219" y2="-72.535034" gradientTransform="matrix(0.125012,0,0,0.125012,0,26.877566)">
<stop offset="0" style="stop-color:rgb(36.078432%,41.960785%,75.294119%);stop-opacity:1;"/>
<stop offset="1" style="stop-color:rgb(47.450981%,52.549022%,79.607844%);stop-opacity:1;"/>
</linearGradient>
<filter id="alpha" filterUnits="objectBoundingBox" x="0%" y="0%" width="100%" height="100%">
  <feColorMatrix type="matrix" in="SourceGraphic" values="0 0 0 0 1 0 0 0 0 1 0 0 0 0 1 0 0 0 1 0"/>
</filter>
<mask id="mask0">
  <g filter="url(#alpha)">
<rect x="0" y="0" width="64" height="64" style="fill:rgb(0%,0%,0%);fill-opacity:0.99;stroke:none;"/>
  </g>
</mask>
<linearGradient id="linear3" gradientUnits="userSpaceOnUse" x1="880" y1="1895.118164" x2="880" y2="95.118134" gradientTransform="matrix(0.0330761,0,0,0.0330761,2.646086,-3.307576)">
<stop offset="0" style="stop-color:rgb(36.078432%,41.960785%,75.294119%);stop-opacity:1;"/>
<stop offset="1" style="stop-color:rgb(47.450981%,52.549022%,79.607844%);stop-opacity:1;"/>
</linearGradient>
<clipPath id="clip1">
  <rect x="0" y="0" width="64" height="64"/>
</clipPath>
<g id="surface5" clip-path="url(#clip1)">
<path style=" stroke:none;fill-rule:nonzero;fill:url(#linear3);" d="M 18.523438 13.070312 C 17.789062 13.070312 17.199219 13.660156 17.199219 14.390625 L 17.199219 17.039062 L 14.554688 17.039062 C 13.820312 17.039062 13.230469 17.628906 13.230469 18.359375 C 13.230469 19.09375 13.820312 19.683594 14.554688 19.683594 L 17.199219 19.683594 L 17.199219 44.820312 C 17.199219 44.867188 17.203125 44.914062 17.207031 44.957031 C 17.207031 44.980469 17.210938 45.003906 17.214844 45.023438 C 17.3125 45.660156 17.859375 46.144531 18.523438 46.144531 L 43.660156 46.144531 L 43.660156 48.792969 C 43.660156 49.523438 44.25 50.113281 44.984375 50.113281 C 45.714844 50.113281 46.304688 49.523438 46.304688 48.792969 L 46.304688 46.144531 L 48.953125 46.144531 C 49.6875 46.144531 50.277344 45.554688 50.277344 44.820312 C 50.277344 44.089844 49.6875 43.5 48.953125 43.5 L 46.304688 43.5 L 46.304688 18.359375 C 46.304688 18.316406 46.304688 18.269531 46.300781 18.226562 C 46.296875 18.203125 46.292969 18.179688 46.292969 18.160156 C 46.195312 17.523438 45.648438 17.039062 44.984375 17.039062 L 19.84375 17.039062 L 19.84375 14.390625 C 19.84375 13.660156 19.253906 13.070312 18.523438 13.070312 Z M 19.84375 19.683594 L 43.660156 19.683594 L 43.660156 43.5 L 19.84375 43.5 Z M 19.84375 19.683594 "/>
</g>
<mask id="mask1">
  <g filter="url(#alpha)">
<rect x="0" y="0" width="64" height="64" style="fill:rgb(0%,0%,0%);fill-opacity:0.99;stroke:none;"/>
  </g>
</mask>
<clipPath id="clip2">
  <rect x="0" y="0" width="64" height="64"/>
</clipPath>
<g id="surface8" clip-path="url(#clip2)">
<path style=" stroke:none;fill-rule:nonzero;fill:rgb(100%,100%,100%);fill-opacity:0.392157;" d="M 18.523438 13.070312 C 17.789062 13.070312 17.199219 13.660156 17.199219 14.390625 L 17.199219 15.054688 C 17.199219 14.320312 17.789062 13.730469 18.523438 13.730469 C 19.253906 13.730469 19.84375 14.320312 19.84375 15.054688 L 19.84375 14.390625 C 19.84375 13.660156 19.253906 13.070312 18.523438 13.070312 Z M 14.554688 17.039062 C 13.820312 17.039062 13.230469 17.628906 13.230469 18.359375 C 13.230469 18.476562 13.246094 18.585938 13.273438 18.691406 C 13.417969 18.121094 13.933594 17.699219 14.554688 17.699219 L 17.199219 17.699219 L 17.199219 17.039062 Z M 19.84375 17.039062 L 19.84375 17.699219 L 44.984375 17.699219 C 45.648438 17.699219 46.195312 18.183594 46.292969 18.820312 C 46.292969 18.84375 46.296875 18.863281 46.300781 18.886719 C 46.304688 18.929688 46.304688 18.976562 46.304688 19.023438 L 46.304688 18.359375 C 46.304688 18.316406 46.304688 18.269531 46.300781 18.226562 C 46.296875 18.203125 46.292969 18.179688 46.292969 18.160156 C 46.195312 17.523438 45.648438 17.039062 44.984375 17.039062 Z M 19.84375 43.5 L 19.84375 44.160156 L 43.660156 44.160156 L 43.660156 43.5 Z M 46.304688 43.5 L 46.304688 44.160156 L 48.953125 44.160156 C 49.570312 44.160156 50.085938 44.582031 50.234375 45.152344 C 50.261719 45.046875 50.277344 44.9375 50.277344 44.820312 C 50.277344 44.089844 49.6875 43.5 48.953125 43.5 Z M 46.304688 43.5 "/>
</g>
<mask id="mask2">
  <g filter="url(#alpha)">
<rect x="0" y="0" width="64" height="64" style="fill:rgb(0%,0%,0%);fill-opacity:0.99;stroke:none;"/>
  </g>
</mask>
<clipPath id="clip3">
  <rect x="0" y="0" width="64" height="64"/>
</clipPath>
<g id="surface11" clip-path="url(#clip3)">
<path style=" stroke:none;fill-rule:nonzero;fill:rgb(0%,0%,0%);fill-opacity:0.235294;" d="M 13.40625 19.023438 C 13.292969 19.21875 13.230469 19.441406 13.230469 19.683594 C 13.230469 20.417969 13.820312 21.007812 14.554688 21.007812 L 17.199219 21.007812 L 17.199219 19.683594 L 14.554688 19.683594 C 14.0625 19.683594 13.636719 19.417969 13.40625 19.023438 Z M 19.84375 19.683594 L 19.84375 21.007812 L 43.660156 21.007812 L 43.660156 19.683594 Z M 17.199219 44.820312 L 17.199219 46.144531 C 17.199219 46.191406 17.203125 46.234375 17.207031 46.28125 C 17.207031 46.304688 17.210938 46.324219 17.214844 46.347656 C 17.3125 46.984375 17.859375 47.46875 18.523438 47.46875 L 43.660156 47.46875 L 43.660156 46.144531 L 18.523438 46.144531 C 17.859375 46.144531 17.3125 45.660156 17.214844 45.023438 C 17.210938 45.003906 17.207031 44.980469 17.207031 44.957031 C 17.203125 44.914062 17.199219 44.867188 17.199219 44.820312 Z M 50.097656 45.484375 C 49.871094 45.878906 49.445312 46.144531 48.953125 46.144531 L 46.304688 46.144531 L 46.304688 47.46875 L 48.953125 47.46875 C 49.6875 47.46875 50.277344 46.878906 50.277344 46.144531 C 50.277344 45.902344 50.210938 45.679688 50.097656 45.484375 Z M 43.660156 48.792969 L 43.660156 50.113281 C 43.660156 50.847656 44.25 51.4375 44.984375 51.4375 C 45.714844 51.4375 46.304688 50.847656 46.304688 50.113281 L 46.304688 48.792969 C 46.304688 49.523438 45.714844 50.113281 44.984375 50.113281 C 44.25 50.113281 43.660156 49.523438 43.660156 48.792969 Z M 43.660156 48.792969 "/>
</g>
<mask id="mask3">
  <g filter="url(#alpha)">
<rect x="0" y="0" width="64" height="64" style="fill:rgb(0%,0%,0%);fill-opacity:0.99;stroke:none;"/>
  </g>
</mask>
<clipPath id="clip4">
  <rect x="0" y="0" width="64" height="64"/>
</clipPath>
<g id="surface14" clip-path="url(#clip4)">
<path style="fill:none;stroke-width:3;stroke-linecap:round;stroke-linejoin:round;stroke:rgb(12.941177%,12.941177%,12.941177%);stroke-opacity:1;stroke-miterlimit:4;" d="M 148.17335 -110.447484 C 142.298911 -110.447484 137.580612 -105.729185 137.580612 -99.885993 L 137.580612 -78.700516 L 116.426382 -78.700516 C 110.551943 -78.700516 105.833643 -73.982217 105.833643 -68.139025 C 105.833643 -62.264586 110.551943 -57.546286 116.426382 -57.546286 L 137.580612 -57.546286 L 137.580612 143.528262 C 137.580612 143.903226 137.611859 144.278191 137.643106 144.621908 C 137.643106 144.80939 137.674353 144.996872 137.7056 145.153107 C 138.486775 150.246371 142.861357 154.121001 148.17335 154.121001 L 349.247898 154.121001 L 349.247898 175.306478 C 349.247898 181.14967 353.966198 185.867969 359.840637 185.867969 C 365.683829 185.867969 370.402128 181.14967 370.402128 175.306478 L 370.402128 154.121001 L 391.587605 154.121001 C 397.462044 154.121001 402.180344 149.402701 402.180344 143.528262 C 402.180344 137.68507 397.462044 132.966771 391.587605 132.966771 L 370.402128 132.966771 L 370.402128 -68.139025 C 370.402128 -68.482742 370.402128 -68.857706 370.370881 -69.201423 C 370.339634 -69.388905 370.308387 -69.576387 370.308387 -69.732622 C 369.527212 -74.825886 365.15263 -78.700516 359.840637 -78.700516 L 158.734842 -78.700516 L 158.734842 -99.885993 C 158.734842 -105.729185 154.016542 -110.447484 148.17335 -110.447484 Z M 158.734842 -57.546286 L 349.247898 -57.546286 L 349.247898 132.966771 L 158.734842 132.966771 Z M 158.734842 -57.546286 " transform="matrix(0.125012,0,0,0.125012,0,26.877566)"/>
</g>
</defs>
<g id="surface1">
<path style=" stroke:none;fill-rule:nonzero;fill:url(#linear0);" d="M 15.214844 56.066406 L 48.292969 56.066406 L 48.292969 58.714844 L 15.214844 58.714844 Z M 15.214844 56.066406 "/>
<path style=" stroke:none;fill-rule:nonzero;fill:url(#radial0);" d="M 48.292969 56.066406 L 53.582031 56.066406 L 53.582031 53.421875 L 48.292969 53.421875 Z M 48.292969 56.066406 "/>
<path style=" stroke:none;fill-rule:nonzero;fill:url(#radial1);" d="M 15.214844 56.066406 L 9.921875 56.066406 L 9.921875 58.714844 L 15.214844 58.714844 Z M 15.214844 56.066406 "/>
<path style=" stroke:none;fill-rule:nonzero;fill:url(#radial2);" d="M 15.214844 56.066406 L 9.921875 56.066406 L 9.921875 53.421875 L 15.214844 53.421875 Z M 15.214844 56.066406 "/>
<path style=" stroke:none;fill-rule:nonzero;fill:url(#radial3);" d="M 48.292969 56.066406 L 53.582031 56.066406 L 53.582031 58.714844 L 48.292969 58.714844 Z M 48.292969 56.066406 "/>
<path style=" stroke:none;fill-rule:nonzero;fill:url(#linear1);" d="M 39.8125 5.792969 L 13.230469 5.792969 C 11.765625 5.792969 10.585938 6.972656 10.585938 8.4375 L 10.585938 53.421875 C 10.585938 54.886719 11.765625 56.066406 13.230469 56.066406 L 50.277344 56.066406 C 51.742188 56.066406 52.921875 54.886719 52.921875 53.421875 L 52.921875 17.808594 Z M 39.8125 5.792969 "/>
<path style=" stroke:none;fill-rule:nonzero;fill:url(#linear2);" d="M 39.8125 5.792969 L 52.921875 17.808594 L 52.921875 8.4375 C 52.921875 6.972656 51.742188 5.792969 50.277344 5.792969 Z M 39.8125 5.792969 "/>
<path style=" stroke:none;fill-rule:nonzero;fill:rgb(0%,0%,0%);fill-opacity:0.235294;" d="M 10.585938 52.761719 L 10.585938 53.421875 C 10.585938 54.886719 11.765625 56.066406 13.230469 56.066406 L 50.277344 56.066406 C 51.742188 56.066406 52.921875 54.886719 52.921875 53.421875 L 52.921875 52.761719 C 52.921875 54.226562 51.742188 55.40625 50.277344 55.40625 L 13.230469 55.40625 C 11.765625 55.40625 10.585938 54.226562 10.585938 52.761719 Z M 10.585938 52.761719 "/>
<path style=" stroke:none;fill-rule:nonzero;fill:rgb(100%,100%,100%);fill-opacity:0.588235;" d="M 13.230469 5.792969 C 11.765625 5.792969 10.585938 6.972656 10.585938 8.4375 L 10.585938 9.101562 C 10.585938 7.632812 11.765625 6.453125 13.230469 6.453125 L 39.8125 6.453125 L 52.921875 18.472656 L 52.921875 17.808594 L 39.8125 5.792969 Z M 13.230469 5.792969 "/>
<path style=" stroke:none;fill-rule:nonzero;fill:rgb(100%,100%,100%);fill-opacity:0.392157;" d="M 39.8125 5.792969 L 40.53125 6.453125 L 50.277344 6.453125 C 51.742188 6.453125 52.921875 7.632812 52.921875 9.101562 L 52.921875 8.4375 C 52.921875 6.972656 51.742188 5.792969 50.277344 5.792969 Z M 39.8125 5.792969 "/>
<path style=" stroke:none;fill-rule:nonzero;fill:rgb(0%,0%,0%);fill-opacity:0.235294;" d="M 39.8125 5.792969 L 52.921875 17.808594 L 52.921875 16.707031 L 41.015625 5.792969 Z M 39.8125 5.792969 "/>
<path style="fill:none;stroke-width:11.338583;stroke-linecap:round;stroke-linejoin:round;stroke:rgb(12.941177%,12.941177%,12.941177%);stroke-opacity:1;stroke-miterlimit:4;" d="M 1203.664647 175.140764 L 400.001193 175.140764 C 355.714081 175.140764 320.048194 210.806652 320.048194 255.093763 L 320.048194 1615.121439 C 320.048194 1659.408551 355.714081 1695.074438 400.001193 1695.074438 L 1520.051773 1695.074438 C 1564.338884 1695.074438 1600.004772 1659.408551 1600.004772 1615.121439 L 1600.004772 538.413179 Z M 1203.664647 175.140764 " transform="matrix(0.0330761,0,0,0.0330761,0,0)"/>
<path style="fill:none;stroke-width:3;stroke-linecap:round;stroke-linejoin:round;stroke:rgb(12.941177%,12.941177%,12.941177%);stroke-opacity:1;stroke-miterlimit:4;" d="M 318.469588 -168.660675 L 423.334574 -72.544854 L 423.334574 -147.506445 C 423.334574 -159.224076 413.897975 -168.660675 402.180344 -168.660675 Z M 318.469588 -168.660675 " transform="matrix(0.125012,0,0,0.125012,0,26.877566)"/>
<use xlink:href="#surface5" mask="url(#mask0)"/>
<use xlink:href="#surface8" mask="url(#mask1)"/>
<use xlink:href="#surface11" mask="url(#mask2)"/>
<use xlink:href="#surface14" mask="url(#mask3)"/>
</g>
</svg>
